X:1
T:Das Blut, so meine Schuld durchstreicht
T:Johann Sebastian Bach arr. André Papillon 
T:BWV 78/4
%%score 1 { ( 2 4 ) | 3 }
L:1/8
Q:3/8=46
M:6/8
K:Bb
V:1 treble nm="Flûte" snm="Fl."
V:2 treble nm="Piano" snm="Pia."
V:4 treble 
V:3 bass 
V:1
 G | d2 e{d} cB/A/B/c/ | dGg ^f/d/=e/f/g/a/ | b2 c' a/^f/g/a/b/c'/ | d'(g/^f/g/a/) d=e/f/g/a/ | %5
 .b e2- e/d/c/d/e/f/ | .g c2- c/B/A/B/c/d/ | .e _A2- A/G/^F/G/=A/B/ | .c/(e/d/c/).a/.^f/ c3- | %9
 c/(e/d/c/).a/.^f/ .B/(d/c/B/).g/.e/ | .A/(c/B/A/).f/.d/ .G/(B/A/G/).e/.c/ | %11
 ^F/G/A/B/c/d/ =e/^f/g/a/b/c'/ | d'c'/b/a/b/{a} g2 z | z6 | z3 c3- | %15
 c/(e/d/c/).a/.^f/ .B/(d/c/B/).g/.e/ | .A/(c/B/A/).f/.d/ .G/(B/A/G/).e/.c/ | %17
 (^F/G/A/B/c/d/) (=e/^f/g/a/b/c'/) | d'c'/b/a/b/ g/(d/=e/^f/g/a/) |{a} b2 c'{b} a2 g/^f/ | %20
 g/a/b/c'/d'/e'/{b} a3 | .B/(d/c/B/).f/.d/ .B/(d/c/B/).f/.d/ | %22
 .B/(d/c/B/).f/.d/ .B/(d/c/B/).f/.d/ | B3- B/(d/c/B/).g/.=e/ | B3- B/(c/B/A/).a/.f/ | %25
 b3- b/(a/g/f/e/d/) | c/B/cA B2 B | f2 g{f} ed/c/d/e/ | fBb a/f/g/a/b/c'/ | d' e2- e/c/d/e/f/g/ | %30
 fe/d/c/d/ B2 z | z/ A/B/c/d/e/ f2 z | z/ =B/c/d/e/f/ g/f/e/d/e/c/ | %33
 .d/(f/e/d/).=b/.g/ .e/(g/f/e/).c'/._a/ | .f/(_a/g/f/).d'/.=b/ .e/(g/f/e/).c'/.g/ | %35
 (d/e/f/).=b/.d' (e/f/g/).c'/.e' | (f/g/_a/).d'/.f' (g/=b/c'/).e'/.g' | z6 | z3 B3- | %39
 B.g.B ._A.f.A | .G.e.G Fd/f/d/B/ | b6 | z3 z2 B | g2 _a{g} fe/d/e/f/ | gcc'{c'} =b2 z | %45
 z/ G/A/=B/c/d/ e2 z | z/ d/=e/^f/g/a/ (b/g/a) z | z/ (d/c/B/).b/.g/ .c/(e/d/c/).c'/.a/ | %48
 .d/(d'/c'/b/).g'/.d'/ .b/(d'/c'/b/).a/.g/ | (^f/g/a/).f/.d/.f/ (g/a/b/).g/.d/.g/ | %50
 (^f/g/a/).f/.d/.f/ (g/=f/e/).d/.e/.c/ | (d/e/f/).d/.=B/.d/ (e/f/g/).e/.c/.e/ | %52
 (d/e/f/).d/.=B/.d/ (e/d/c/_B/A/G/) | .c/(e/d/c/).a/.^f/ .c/(e/d/c/).a/.f/ | %54
 .c/(e/d/c/).a/.^f/ .c/(e/d/c/).a/.f/ | .B/(d/c/B/).g/.d/ .B/(d/c/B/).g/.d/ | %56
 .B/(d/c/B/).g/.d/ (B/c/d/=e/^f/g/) | (a/b/c'/d'/e'/)^f/ g2 z | z3 d3- | d.b.d .c.a.c | %60
 .B.g.B A z z | z3 z2 G | d2 e{d} cB/A/B/c/ | dGg ^f/d/=e/f/g/a/ | b2 c' a/^f/g/a/b/c'/ | %65
 d'(g/^f/g/a/) d=e/f/g/a/ | .b e2- e/d/c/d/e/f/ | .g c2- c/B/A/B/c/d/ | .e _A2- A/G/^F/G/=A/B/ | %69
 .c/(e/d/c/).a/.^f/ c3- | c/(e/d/c/).a/.^f/ .B/(d/c/B/).g/.e/ | %71
 .A/(c/B/A/).f/.d/ .G/(B/A/G/).e/.c/ | ^F/G/A/B/c/d/ =e/^f/g/a/b/c'/ | d'c'/b/a/b/{a} g2 z |] %74
V:2
 z | z [B,G]2 E D2 | [G,D]2 [B,E] [A,D]3 | G3 ^FDF | [DG][B,G][EA] [D^FA]2 z | z [EB]2 [FA]2 z | %6
w: ||||||
 z [CG]2 [DF]2 z | z [_A,E]2 [B,D]2 z | z [CA]2 [DA]3 | ^FGA G2 z | F2 z E2 z | z ^F2- F2 G | %12
w: ||||||
 G2 ^F G2 G | d2 e{d} (cB/A/) (B/c/) | (dG) g ^f2 z | A ^F2 G2 z | F2 z E2 z | z ^F2- F2 G | %18
w: * * * Das~|Blut,~ so~ mei- * * ne~ _|Schuld~ * durch- streicht,~||||
 G2 ^F G2 G | d2 e (cB/A/) (B/c/) | (dG) g ^f2 z | d (e/c/) d d f2 | (de/c/) d d2 z | %23
w: * * * das~|Blut,~ so~ mei- * * ne~ _|Schuld~ * durch- streicht,~|macht~ mir _ das~ Her- ze~|wie- * * der~ leicht,~|
 =e (f/d/) e e g2 | (=ef/d/) e f2 z | f g _a g c f | z (e/d/c/d/) B2 z | z DE G F2- | %28
w: macht~ mir~ _ das~ Her- ze~|wie- * * der~ leicht~|und~ spricht~ mich~ frei,~ und~ spricht~|mich~ _ _ _ frei.~||
 F2 G [CF]2 F | F G2 F3 | [DF][B,C-G][A,CF] [B,DF]2 B | f2 f (_AG) A | (Gg/f/) (e/d/) e c g | %33
w: ||* * * * Ruft~|mich~ der~ Höl- * len~|Herr~ _ _ zum~ * Strei- te,~ zum~|
 g G z z2 g | g G z z2 c | (=B/c/d/B/G/B/ c/d/e/c/A/c/ | d/e/f/d/=B/d/ e) c e | %37
w: Strei- te,~ zum~|Strei- te,~ zum~|Strei- * * * * * * * * * * *|* * * * * * * te,~ so~|
 (f/g/_a) g (fe/d/) e | _A (G/F/G/A/) F G A | B3/2 G/ e z z/ B/ f | z z/ B/ g z2 B | %41
w: ste- * * het~ Je- * * sus~|mir~ zur~ _ _ _ Sei- te,~ dass~|ich~ be- herzt,~ be- herzt,~|be- herzt,~ und~|
 (B/c/d/e/f/g/ _a) g/ f/ g | B (g/f/) (e/d/) e2 z | z E2 D G2 | [EG]3 [DG]2 g | %45
w: sieg- * * * * * * haft,~ be- herzt~|und~ sieg- * haft~ * sei.~||* * Ruft~|
 e2 c (^FG/A/) (B/c/) | (dG) g ^f d f | g G z z2 ^f | g G z z2 B | (A/B/c/A/^F/A/ B/c/d/B/G/B/ | %50
w: mich~ der~ Höl- * * len~ *|Herr~ _ zum~ Strei- te,~ zum~|Strei- te,~ zum~|Strei- te,~ zum~|Strei- * * * * * * * * * * *|
 A/B/c/A/^F/A/ B) G c | (=B/c/d/B/G/B/ c/d/e/c/G/c/ | =B/c/d/B/G/B/ c) G e | d6- | d6- | d6- | %56
w: * * * * * * * te,~ zum~|Strei- * * * * * * * * * * *|* * * * * * * te,~ so~|ste-|||
 d2 d (dg) d | e d c (dc/B/) (A/G/) | ^F (G/A/B/G/) A D A | B3/2 E/ e z z/ F/ f | %60
w: * het~ Je- * sus,~|so~ ste- het~ Je- * * sus~ *|mir~ zur~ * * * Sei- te,~ dass~|ich~ be- herzt,~ be- herzt,~|
 d (g/^f/) g a c/ A/ e | d (c/B/) (A/B/) G2 z | z [B,G]2 E D2 | [G,D]2 [B,E] [A,D]3 | G3 ^FDF | %65
w: dass~ ich~ * be- herzt,~ ich~ be- herzt~|und~ sieg- * haft~ _ sei.~||||
 [DG][B,G][EA] [D^FA]2 z | z [EB]2 [FA]2 z | z [CG]2 [DF]2 z | z [_A,E]2 [B,D]2 z | z [CA]2 [DA]3 | %70
w: |||||
 ^FGA G2 z | F2 z E2 z | z ^F2- F2 G | G2 ^F G2 z |] %74
w: ||||
V:3
 z | z G,,G,- G,^F,G, | B,,2 C, D,C,D, | G,,G,E, C,B,,A,, | B,,E,C, D,2 z | z G,G,, F,,2 z | %6
 z E,E,, D,,2 z | z C,,C, B,,2 z | z A,G, ^F,G,A, | D,=E,^F, G,_E, z | F,D, z E,C, z | %11
 D,DC B,A,G, | B,,C,D, G,,2 z | z G,,G,- G,^F,G, | B,,2 C, D,/D/C/B,/A,/G,/ | ^F,A,D, G,E, z | %16
 F,D, z E,C, z | D,DC B,A,G, | B,,C,D, G,,2 z | z G,,G,- G,^F,G, | B,,2 C, D,=E,/^F,/G,/A,/ | %21
 B,B,B, A,A,A, | G,G,G, F,F,F, | G,G,G, CCC | C,C,C, F,F,E, | D,C,B,, E,2 A,, | B,,F,F,, B,,2 z | %27
 z B,,B,- B,A,B, | D,2 E, F,2 A, | B,/A,/G,/F,/E,/D,/ C,A,C, | D,E,F, B,,2 z | z B,,C, D,E,F,- | %32
 F,E,G, C,E,C, | G,=B,G, G,CG, | G,DG, G,EG, | G,G,,G, G,G,,G, | G,G,,G, C,CB, | _A,2 B, A,2 G, | %38
 F,2 E, D,E,F, | (G,/_A,/B,/).G,/.E,/.G,/ (F,/G,/A,/).F,/.D,/.F,/ | %40
 (E,/F,/G,/).E,/.C,/.E,/ (D,/E,/F,/).D,/.B,,/.D,/ | _A,,3 z/ (B,,/C,/D,/E,/F,/) | G,_A,B, E,2 z | %43
 z C,C- C=B,C- | C(E,/D,/E,/F,/) G,A,=B, | CC,E, A,,2 z | z/ B,,/C,/D,/E,/C,/ D,^F,D, | %47
 G,D,G, A,D,A, | B,D,B, G,D,G, | DD,D DD,D | DD,D G,A,/B,/C | G,G,,G, G,G,,G, | G,G,,G, C,E,C, | %53
 ^F,G,/=E,/F, F, A,2 | ^F,G,/=E,/F, F,2 z | G,A,/^F,/G, G, B,2 | G,A,/^F,/G, G,A,B, | %57
 CB,A, B,2 E, | D,B,,G,, D,^F,D, | (G,/A,/B,/).G,/.E,/.G,/ (A,/B,/C/).A,/.F,/.A,/ | %60
 (B,/C/D/).B,/.G,/.B,/ (^F,/G,/A,/).F,/.D,/.F,/ | B,,C,D, G,,2 z | z G,,G,- G,^F,G, | %63
 B,,2 C, D,C,D, | G,,G,E, C,B,,A,, | B,,E,C, D,2 z | z G,G,, F,,2 z | z E,E,, D,,2 z | %68
 z C,,C, B,,2 z | z A,G, ^F,G,A, | D,=E,^F, G,_E, z | F,D, z E,C, z | D,DC B,A,G, | %73
 B,,C,D, G,,2 z |] %74
V:4
 x | x3 A,2 B, | x6 | B,2 C D2 C | x6 | x6 | x6 | x6 | x6 | D3 DC x | CB, x B,A, x | x DE DCB, | %12
 B,E[CD] [B,D]2 x | x6 | x6 | D3 DC x | CB, x B,A, x | x D2- DCB, | B,E[CD] [B,D]2 x | x6 | x6 | %21
 x6 | x6 | x6 | x6 | x6 | x6 | x3 CED | [B,D]3 A,2 C | D B,2 A,CE | x6 | x6 | x6 | x6 | x6 | x6 | %36
 x6 | x6 | x6 | x6 | x6 | x6 | x6 | x4 FE | x6 | x6 | x6 | x6 | x6 | x6 | x6 | x6 | x6 | x6 | x6 | %55
 x6 | x6 | x6 | x6 | x6 | x6 | x6 | x3 A,2 B, | x6 | B,2 C D2 C | x6 | x6 | x6 | x6 | x6 | %70
 D3 DC x | CB, x B,A, x | x DE DCB, | B,E[CD] [B,D]2 x |] %74

